X: 30431
T: WHIPPOORWILL
C:
%R: reel
B: Elias Howe "The Musician's Companion" Part 3 1844 p.43 #1
S: http://imslp.org/wiki/The_Musician's_Companion_(Howe,_Elias)
S: https://archive.org/stream/firstthirdpartof03howe/#page/66/mode/1up
Z: 2016 John Chambers <jc:trillian.mit.edu>
N: The rhythms between strains don't match; not fixed.
M: 2/4
L: 1/16
K: F
% - - - - - - - - - - - - - - - - - - - - - - - - -
C2 |\
F2FG A2GF | d2de fgaf | c2cA cage | fde^c d2d2 |\
F2FG A2GF | d2d2 cAce | fgag fedc | Adce d2d2 :|
|:\
fgaf g[ge][ge][ge] | fddf ecc2 | c2cA abae | fdec A2A2 |\
Add2 dfed | ecec egfe | fbag fedc | Adce d2d2 :|
% - - - - - - - - - - - - - - - - - - - - - - - - -
